src/images/O2/Tile.svg

<svg fill="none" height="120" viewBox="0 0 120 120" width="120" xmlns="http://www.w3.org/2000/svg" xmlns:xlink="http://www.w3.org/1999/xlink"><linearGradient id="a" gradientUnits="userSpaceOnUse" x1="60" x2="60" y1="0" y2="120"><stop offset="0" stop-color="#131835"/><stop offset=".505208" stop-color="#0973ad"/><stop offset="1" stop-color="#95c6e3"/></linearGradient><path d="m0 0h120v120h-120z" fill="url(#a)"/><g fill="#fff"><path clip-rule="evenodd" d="m21 54.59c0 17.2747 12.5412 31.5899 30.7561 31.5899 18.1168 0 30.6579-14.3152 30.6579-31.5899 0-18.3376-12.3122-31.59-30.6579-31.59-18.4439 0-30.7561 13.2524-30.7561 31.59zm11.8381 0c0-11.4767 6.9818-22.597 18.918-22.597 11.838 0 18.8199 11.1203 18.8199 22.597 0 10.767-5.7882 22.5986-18.8199 22.5986-13.1298 0-18.918-11.8316-18.918-22.5986z" fill-rule="evenodd"/><path d="m99.0598 98v-4.212h-10.906c4.3657-4.2872 10.0558-9.4933 10.0558-15.1589 0-5.2454-3.2865-7.8092-8.3717-7.8092-2.7142 0-5.5102.69-7.9302 1.9147l.4251 4.4409c1.7496-1.1495 3.9079-2.1453 6.1643-2.1453 2.1747 0 4.3657 1.1495 4.3657 3.5989 0 4.9003-9.0747 12.4806-11.5601 14.8924v4.4785z"/></g></svg>

<svg width="120" height="120" viewBox="0 0 120 120" fill="none" xmlns="http://www.w3.org/2000/svg">
<rect width="120" height="120" fill="url(#paint0_linear_253_2701)"/>
<path fill-rule="evenodd" clip-rule="evenodd" d="M21 54.59C21 71.8647 33.5412 86.1799 51.7561 86.1799C69.8729 86.1799 82.414 71.8647 82.414 54.59C82.414 36.2524 70.1018 23 51.7561 23C33.3122 23 21 36.2524 21 54.59ZM32.8381 54.59C32.8381 43.1133 39.8199 31.993 51.7561 31.993C63.5941 31.993 70.576 43.1133 70.576 54.59C70.576 65.357 64.7878 77.1886 51.7561 77.1886C38.6263 77.1886 32.8381 65.357 32.8381 54.59Z" fill="white"/>
<path d="M99.0598 98V93.788H88.1538C92.5195 89.5008 98.2096 84.2947 98.2096 78.6291C98.2096 73.3837 94.9231 70.8199 89.8379 70.8199C87.1237 70.8199 84.3277 71.5099 81.9077 72.7346L82.3328 77.1755C84.0824 76.026 86.2407 75.0302 88.4971 75.0302C90.6718 75.0302 92.8628 76.1797 92.8628 78.6291C92.8628 83.5294 83.7881 91.1097 81.3027 93.5215V98H99.0598Z" fill="white"/>
<defs>
<linearGradient id="paint0_linear_253_2701" x1="60" y1="0" x2="60" y2="120" gradientUnits="userSpaceOnUse">
<stop stop-color="#131835"/>
<stop offset="0.505208" stop-color="#0973AD"/>
<stop offset="1" stop-color="#95C6E3"/>
</linearGradient>
</defs>
</svg>
